images/microsoft.svg

<svg width="121" height="26" viewBox="0 0 121 26" fill="none" xmlns="http://www.w3.org/2000/svg">
<path fill-rule="evenodd" clip-rule="evenodd" d="M13.3032 12.5806H0.975342V0H13.3032V12.5806ZM120.145 11.7932V9.67856H117.562V6.39111L117.475 6.41833L115.048 7.17299L115 7.18776V9.67867H111.17V8.29102C111.17 7.64488 111.312 7.15042 111.593 6.82067C111.871 6.49486 112.269 6.32923 112.776 6.32923C113.141 6.32923 113.519 6.41658 113.899 6.58885L113.994 6.63212V4.40513L113.949 4.38838C113.595 4.2588 113.112 4.19355 112.514 4.19355C111.761 4.19355 111.076 4.36023 110.479 4.69057C109.882 5.02137 109.412 5.49361 109.082 6.09404C108.754 6.69377 108.588 7.38643 108.588 8.15295V9.67856H106.789V11.7932H108.588V20.7017H111.17V11.7932H115V17.4544C115 19.786 116.082 20.9675 118.216 20.9675C118.567 20.9675 118.936 20.9258 119.312 20.844C119.696 20.76 119.957 20.6761 120.111 20.5866L120.145 20.5661V18.4319L120.04 18.5025C119.9 18.5975 119.725 18.675 119.521 18.7327C119.315 18.7915 119.144 18.8209 119.011 18.8209C118.511 18.8209 118.141 18.684 117.911 18.4138C117.679 18.1411 117.562 17.6644 117.562 16.9974V11.7932H120.145ZM101.022 18.8212C100.085 18.8212 99.3458 18.5053 98.825 17.883C98.3011 17.2576 98.0356 16.3659 98.0356 15.233C98.0356 14.0641 98.3011 13.1493 98.8253 12.5128C99.3464 11.8805 100.078 11.5596 101.001 11.5596C101.897 11.5596 102.609 11.8661 103.12 12.4711C103.633 13.0792 103.893 13.9867 103.893 15.1691C103.893 16.3662 103.649 17.2856 103.166 17.9007C102.686 18.5111 101.965 18.8212 101.022 18.8212ZM96.9156 10.9961C97.9283 9.94562 99.3487 9.41301 101.137 9.41301C102.821 9.41301 104.158 9.92247 105.107 10.9276C106.057 11.9322 106.538 13.3308 106.538 15.0837C106.538 16.8583 106.025 18.2984 105.013 19.3622C104.001 20.4272 102.609 20.9673 100.875 20.9673C99.2119 20.9673 97.8674 20.4548 96.8793 19.4431C95.8913 18.4317 95.3905 17.0435 95.3905 15.3176C95.3905 13.5005 95.9036 12.0466 96.9156 10.9961ZM91.2269 9.41301C90.0105 9.41301 89.0043 9.72927 88.2356 10.3528C87.4623 10.9801 87.07 11.8028 87.07 12.7984C87.07 13.3159 87.1547 13.7756 87.3213 14.1655C87.489 14.5566 87.7484 14.901 88.093 15.1901C88.4351 15.4768 88.9631 15.7771 89.6627 16.0827C90.2509 16.3287 90.6895 16.5368 90.9681 16.7008C91.2405 16.8615 91.4338 17.0231 91.5429 17.1805C91.649 17.3345 91.7028 17.5453 91.7028 17.8053C91.7028 18.5459 91.1572 18.9063 90.0345 18.9063C89.6181 18.9063 89.1431 18.8179 88.6227 18.6436C88.1061 18.472 87.6185 18.2207 87.177 17.8985L87.0698 17.8203V20.3475L87.1091 20.3662C87.4745 20.5376 87.9352 20.6822 88.4782 20.7959C89.0202 20.9098 89.5126 20.9677 89.9403 20.9677C91.2603 20.9677 92.3232 20.65 93.0989 20.0227C93.8794 19.3911 94.275 18.5489 94.275 17.519C94.275 16.7759 94.062 16.1388 93.6423 15.6249C93.2254 15.1152 92.5019 14.6472 91.4927 14.2336C90.6887 13.9056 90.1736 13.6333 89.9611 13.4243C89.7563 13.2224 89.6523 12.9368 89.6523 12.5752C89.6523 12.2546 89.7807 11.9978 90.0442 11.7898C90.3098 11.5808 90.6795 11.4745 91.1432 11.4745C91.5735 11.4745 92.0137 11.5436 92.4515 11.679C92.889 11.8144 93.2733 11.9957 93.594 12.2175L93.6995 12.2908V9.89351L93.659 9.87583C93.3631 9.74683 92.9729 9.63645 92.4989 9.54689C92.0271 9.4579 91.5991 9.41301 91.2269 9.41301ZM78.1409 17.883C78.6616 18.5053 79.4008 18.8212 80.3379 18.8212C81.281 18.8212 82.0018 18.5111 82.4814 17.9007C82.9643 17.2856 83.2093 16.3662 83.2093 15.1691C83.2093 13.9867 82.949 13.0792 82.4357 12.4711C81.925 11.8661 81.2122 11.5596 80.3172 11.5596C79.3939 11.5596 78.6621 11.8805 78.1415 12.5128C77.6171 13.1493 77.3518 14.0641 77.3518 15.233C77.3518 16.3662 77.6168 17.2576 78.1409 17.883ZM80.453 9.41301C78.6643 9.41301 77.2439 9.94562 76.2317 10.9961C75.2197 12.0466 74.7062 13.5005 74.7062 15.3176C74.7062 17.0442 75.2074 18.4317 76.1954 19.4431C77.1834 20.4548 78.5279 20.9673 80.1914 20.9673C81.9246 20.9673 83.317 20.4272 84.3293 19.3622C85.3412 18.2984 85.8542 16.8583 85.8542 15.0837C85.8542 13.3308 85.3729 11.9322 84.4232 10.9276C83.4731 9.92247 82.1372 9.41301 80.453 9.41301ZM70.7862 9.67856V11.5875H70.8134C71.0517 10.968 71.3634 10.4713 71.7947 10.1089C72.2861 9.6967 72.8597 9.48733 73.5008 9.48733C73.926 9.48733 74.2621 9.53909 74.4997 9.64168L74.541 9.65971V12.2738L74.4337 12.1948C74.3157 12.1083 74.1154 12.026 73.8389 11.9503C73.5596 11.8741 73.3017 11.8356 73.0719 11.8356C72.394 11.8356 71.8388 12.1335 71.4221 12.7214C71.0001 13.3163 70.7862 14.104 70.7862 15.0628V20.7015H68.2353V9.67856H70.7862ZM63.6671 9.41301C62.4968 9.41301 61.4529 9.66809 60.5651 10.1709C59.6753 10.6749 58.9873 11.3945 58.5191 12.3094C58.053 13.2221 57.8164 14.2883 57.8164 15.4773C57.8164 16.5188 58.0458 17.4745 58.4993 18.3169C58.953 19.1607 59.5952 19.8207 60.4082 20.2786C61.2199 20.7358 62.1582 20.9676 63.197 20.9676C64.4093 20.9676 65.4443 20.7213 66.2742 20.2354L66.3077 20.2159V17.8403L66.2005 17.9199C65.8246 18.1983 65.4045 18.4204 64.9525 18.5805C64.5016 18.7404 64.0906 18.8212 63.7301 18.8212C62.7292 18.8212 61.9256 18.5029 61.3424 17.8752C60.7579 17.2468 60.4615 16.3643 60.4615 15.2538C60.4615 14.1364 60.7706 13.2312 61.3797 12.5633C61.987 11.8974 62.792 11.5596 63.7722 11.5596C64.6107 11.5596 65.4277 11.8482 66.2007 12.4182L66.3077 12.4971V9.99412L66.2731 9.97435C65.9823 9.80883 65.5855 9.67216 65.093 9.56852C64.6026 9.46511 64.1229 9.41301 63.6671 9.41301ZM53.5086 9.67867H56.0595V20.7015H53.5086V9.67867ZM54.8102 4.98287C54.3903 4.98287 54.0241 5.12815 53.7233 5.41603C53.4212 5.70473 53.268 6.06822 53.268 6.49719C53.268 6.91942 53.4193 7.27628 53.7186 7.5573C54.0159 7.8375 54.3832 7.97952 54.8103 7.97952C55.2372 7.97952 55.6059 7.8375 55.9068 7.55776C56.2095 7.27628 56.3631 6.91953 56.3631 6.49719C56.3631 6.08322 56.2137 5.72346 55.9192 5.42766C55.625 5.13245 55.2517 4.98287 54.8102 4.98287ZM48.4454 20.7015V8.86539H48.3615L43.7415 20.7015H41.8952L37.202 8.86423H37.1181V20.7014H34.6716V5.3203H38.4214L42.8659 16.745L47.4457 5.3203H51.0488V20.7015H48.4454ZM14.1251 12.5806H26.453V0H14.1251V12.5806ZM13.3032 26H0.975342V13.4194H13.3032V26ZM14.1251 26H26.453V13.4194H14.1251V26Z" fill="#36536B"/>
</svg>

<svg width="121" height="26" fill="none" xmlns="http://www.w3.org/2000/svg"><path fill-rule="evenodd" clip-rule="evenodd" d="M13.303 12.58H.975V0h12.328v12.58Zm106.842-.787V9.68h-2.583V6.39l-.087.027-2.427.755-.048.015v2.49h-3.83V8.292c0-.646.142-1.14.423-1.47.278-.326.676-.492 1.183-.492.365 0 .743.088 1.123.26l.095.043V4.405l-.045-.017c-.354-.13-.837-.194-1.435-.194-.753 0-1.438.166-2.035.497a3.516 3.516 0 0 0-1.397 1.403c-.328.6-.494 1.292-.494 2.059v1.526h-1.799v2.114h1.799v8.909h2.582v-8.909H115v5.661c0 2.332 1.082 3.514 3.216 3.514.351 0 .72-.042 1.096-.124.384-.084.645-.168.799-.257l.034-.02v-2.135l-.105.07c-.14.096-.315.173-.519.23a1.944 1.944 0 0 1-.51.089c-.5 0-.87-.137-1.1-.407-.232-.273-.349-.75-.349-1.417v-5.204h2.583Zm-19.123 7.028c-.937 0-1.676-.316-2.197-.938-.524-.625-.79-1.517-.79-2.65 0-1.169.266-2.084.79-2.72.521-.633 1.253-.953 2.176-.953.896 0 1.608.306 2.119.911.513.608.773 1.516.773 2.698 0 1.197-.244 2.117-.727 2.732-.48.61-1.201.92-2.144.92Zm-4.106-7.825c1.012-1.05 2.433-1.583 4.221-1.583 1.684 0 3.021.51 3.97 1.515.95 1.004 1.431 2.403 1.431 4.156 0 1.774-.513 3.214-1.525 4.278-1.012 1.065-2.404 1.605-4.138 1.605-1.663 0-3.008-.512-3.996-1.524-.988-1.011-1.489-2.4-1.489-4.125 0-1.817.514-3.271 1.526-4.322Zm-5.69-1.583c-1.216 0-2.222.316-2.99.94-.774.627-1.166 1.45-1.166 2.445 0 .518.085.978.251 1.367.168.392.427.736.772 1.025.342.287.87.587 1.57.893.588.246 1.026.454 1.305.618.272.16.466.322.575.48.106.153.16.364.16.624 0 .74-.546 1.101-1.669 1.101-.416 0-.89-.088-1.411-.262a5.272 5.272 0 0 1-1.446-.745l-.107-.079v2.527l.04.02c.365.17.825.315 1.368.429a7.229 7.229 0 0 0 1.462.172c1.32 0 2.383-.318 3.159-.945.78-.632 1.176-1.474 1.176-2.504 0-.743-.213-1.38-.633-1.894-.417-.51-1.14-.978-2.15-1.391-.803-.328-1.318-.6-1.53-.81-.206-.202-.31-.487-.31-.849 0-.32.129-.577.392-.785.266-.21.636-.315 1.1-.315.43 0 .87.069 1.307.204.438.135.822.317 1.143.538l.106.074V9.894l-.041-.018c-.296-.13-.686-.24-1.16-.33a6.97 6.97 0 0 0-1.272-.133Zm-13.085 8.47c.52.622 1.26.938 2.197.938.943 0 1.664-.31 2.143-.92.483-.615.728-1.535.728-2.732 0-1.182-.26-2.09-.773-2.698-.511-.605-1.224-.911-2.119-.911-.923 0-1.655.32-2.175.953-.525.636-.79 1.551-.79 2.72 0 1.133.265 2.025.789 2.65Zm2.312-8.47c-1.789 0-3.21.533-4.221 1.583-1.012 1.05-1.526 2.505-1.526 4.322 0 1.726.501 3.114 1.49 4.125.987 1.012 2.332 1.524 3.995 1.524 1.734 0 3.126-.54 4.138-1.605 1.012-1.064 1.525-2.504 1.525-4.278 0-1.753-.481-3.152-1.43-4.156-.95-1.006-2.287-1.515-3.971-1.515Zm-9.667.266v1.909h.027c.239-.62.55-1.117.982-1.48a2.588 2.588 0 0 1 1.706-.62c.425 0 .761.051.999.154l.041.018v2.614l-.107-.08c-.118-.086-.319-.168-.595-.244a2.95 2.95 0 0 0-.767-.114c-.678 0-1.233.297-1.65.885-.422.595-.636 1.383-.636 2.342V20.7h-2.55V9.68h2.55Zm-7.119-.266c-1.17 0-2.214.255-3.102.758a5.07 5.07 0 0 0-2.046 2.138c-.466.913-.703 1.98-.703 3.168 0 1.042.23 1.997.683 2.84a4.84 4.84 0 0 0 1.91 1.962c.81.457 1.75.689 2.788.689 1.212 0 2.247-.247 3.077-.733l.034-.02V17.84l-.108.08c-.375.278-.796.5-1.248.66-.45.16-.861.241-1.222.241-1 0-1.804-.318-2.388-.946-.584-.628-.88-1.51-.88-2.621 0-1.118.309-2.023.918-2.69.607-.667 1.412-1.004 2.392-1.004.839 0 1.656.288 2.429.858l.107.08V9.993l-.035-.02c-.29-.165-.688-.302-1.18-.405a6.938 6.938 0 0 0-1.426-.156Zm-10.158.266h2.55V20.7h-2.55V9.68Zm1.301-4.696c-.42 0-.786.145-1.087.433a1.44 1.44 0 0 0-.455 1.081c0 .422.151.78.45 1.06.298.28.665.423 1.092.423a1.56 1.56 0 0 0 1.097-.422c.303-.282.456-.638.456-1.06 0-.415-.15-.775-.444-1.07a1.509 1.509 0 0 0-1.109-.445ZM48.445 20.7V8.865h-.084l-4.62 11.836h-1.846L37.202 8.864h-.084v11.837h-2.446V5.321h3.75l4.444 11.424 4.58-11.425h3.603v15.381h-2.604Zm-34.32-8.12h12.328V0H14.125v12.58ZM13.303 26H.975V13.42h12.328V26Zm.822 0h12.328V13.42H14.125V26Z" fill="#36536B"/></svg>
